X: 04022
T: DANCE FRAN\,CAISE #2
C: Bob McQuillen 30 Sept 79
B: Bob's Note Book 04 #22
%R: march, reel
Z: 2020 John Chambers <jc:trillian.mit.edu>
M: C
L: 1/8
K: D
dB \
| A2d2 c2e2 | f2a2 d3f | gagf f2ed | c2d2 e2fe |\
| A2d2 cde2 | fgaf d2f2 | gfed cBcd | e2d2 d2 :|
|: fg \
| a2f2 b2ag | fad2 d2ef | gfed e2ag | f2d2 d2fg |\
| a2fa b2ag | f2a2 defa | gfed cbag | f2d2 d2 :|

%%sep 1 1 500

%%sep 1 1 500

